X:1

T:Battle of Aughrim [4]

M:C|

L:1/8

R:March

S:Geoghegan – Compleat Tutor for the Pastoral or New Bagpipes (c. 1745-46)

N:Title in Geoghegan’s publication is given as “A Bagpipe Concerto call’d

N:the Battle of Aughrim, or the Football March.”

Z:AK/Fiddler’s Companion

K:Ddor

D/D/D DD D/D/D ED | D/D/D FD D/D/D GD | D/D/D FD D/D/D ED | D/D/D (G/F/E/F/) GC ED :|

|: D/D/D G/F/E/F/ GD FD | D/D/D EC GC ED | D/D/D BD AD FD | D/D/D BDGC ED :|

|: D/D/D BD D/D/D FD | D/D/D BD D/D/D ED | D/D/D BD D/D/D dD | D/D/D BD D/D/D ED :|

|: D/D/D (d/c/B/c/) dD FD | D/D/D (c/B/A/B/) cC ED | dBcA BG AD | G/F/E/F/ GC ED D/D/D :|

|: d>B d>A d>B d>D | d>B d>A d>F d>D | d>B Ad Fd GD | B/d/A/d/ G/d/F/d/ B/d/A/d/ G/d/D/d/ :|

|: F/d/G/d/ F/d/E/d/ F/d/G/d/ E/d/D/d/ | E/d/F/d/ G/d/E/d/ | E/d/F/d/ G/d/E/d/ E/d/F/d/ G/d/D/d/ |

E/d/F/d/ G/d/E/d/ E/d/F/d/ G/d/D/d/ | E/d/F/d/ G/d/E/d/ E/d/F/d/ G/d/D/d/ :|

                       

BATTLE OF BULL RUN. AKA and see "Abe's Retreat."

                       


BATTLE OF CLONTARF, THE. Irish, March (2/4 time). G Mixolydian. Standard tuning. AB. "Calling the clans to battle." "From a piper named Fogarty of Carrick‑on‑Suir. I find an identical setting of this in one of Mr. Pigot's books, which was copied from a MS. lent him by Mr. Denny Lane of Cork. Petrie has a version of this fine old march in his Ancient Music of Ireland (p. 31), with the name 'The Return From Fingal' (i.e. after the battle, Fingal being the district in which Clontarf is situated); but he does not state the source from which he procured it. The setting given here is somewhat simpler than Petrie's, and I think better and more characteristic. It has a fine martial swing, tinged with melancholy" (Joyce). Joyce (Old Irish Folk Music and Song), 1909; No. 501, pg. 274.

                       

BATTLE OF CREMONA, THE. AKA and see “The Fearless Boys,” “The Lea Rig(ges).” Irish, March. Standard tuning. At the Battle of Cremona in 1702 the píob mhór of the Irish Brigade was heard to play this older air during their struggle against the Germans. Afterwards the tune was only known by this name (Collinson, 1975). The hero of the battle was Count Daniel O’Mahoney, an exiled Stuart supporter originally from County Kerry, whose daughter married Richard Cantillon (for more on whom see note for “Lamentation of Richard Cantillon”). O’Mahoney was in command of a battalion from the Dillon regiment (in the service of Louis XIV) when the French at Cremona were surprised in their sleep by the Austrians under Prince Eugene. After nearly being overtaken, the French forces, given time to regroup by a gallant stand by the Irish, drove out the Imperial troops. The Irish Brigade played the melody again (along with “St. Patrick’s Day (in the Morning)” and “White Cockade [1]”) in 1745 at the Battle of Fontenoy when, again as part of the French forces, they fought the English. Bulmer & Sharpley (Music from Ireland), 1974, vol. 1, No. 81.

                       

BATTLE OF CULLODEN, THE.  American(?), Reel. D Major/Mixolydian. Standard tuning. AABB. The melody appears in the music manuscript copybook of Henry Livingston, Jr.  Livingston purchased the estate of Locust Grove, Poughkeepsie, New York, in 1771 at the age of 23. In 1775 he was a Major in the 3rd New York Regiment, which participated in Montgomery’s invasion of Canada in a failed attempt to wrest Montreal from British control. An important land-owner in the Hudson Valley, and a member of the powerful Livingston family, Henry was also a surveyor and real estate speculator, an illustrator and map-maker, and a Justice of the Peace for Dutchess County. He was also a poet and musician, and presumably a dancer, as he was elected a Manager for the New York Assembly’s dancing season of 1774-1775, along with his 3rd cousin, John Jay, later U.S. Chief Justice of Governor of New York.

